X:133
T:Trip to the Oaks THO4.133
M:2/4
L:1/8
Z:vmp. Peter Dunk 2010/11.from a transcription by Fynn Titford-Mock 2007
B:Thompson's Compleat Collection of 200 Favourite Country Dances Volume IV.
Q:1/4=140
K:C
c2 ec|cBAG|defg|fedc|c2 ec|cBAG|AcBc|c2c2:|
G3 A|GFEF|GABc|defg|G3 A|GFEF|AcBc|c4:|
